X: 2430
T: Ballinalacken, The
R: reel
M: 4/4
K: Edorian
Beee Beee|deed Aded|Beee B3 z|A2DE FE E2|
Beee Beee|deed Aded|GBAG G3 z|dBAF FE EF||
G2G2 DGBG|G2BG AFDG|G2G2 dGBG|AFDE FEEF|
G2G2 d3 z|GABG AFDG|G2Bd dze2|dBAG EFGA:|B4 E4||

